app/static/svg/chat.svg

<?xml version="1.0" encoding="iso-8859-1"?>
<!-- Generator: Adobe Illustrator 18.0.0, SVG Export Plug-In . SVG Version: 6.00 Build 0)  -->
<!DOCTYPE svg PUBLIC "-//W3C//DTD SVG 1.1//EN" "http://www.w3.org/Graphics/SVG/1.1/DTD/svg11.dtd">
<svg version="1.1" id="Capa_1" xmlns="http://www.w3.org/2000/svg" xmlns:xlink="http://www.w3.org/1999/xlink" x="0px" y="0px"
	 viewBox="0 0 58 58" style="enable-background:new 0 0 58 58;" xml:space="preserve">
<g
   id="g62">
	<path
   id="path54"
   style="fill:#888888;"
   d="M 28.5 0 C 12.76 0 0 12.76 0 28.5 C 0 44.24 12.76 57 28.5 57 C 32.103 57 35.547703 56.326469 38.720703 55.105469 L 34.064453 54.070312 C 33.525453 53.950314 33.185688 53.415953 33.304688 52.876953 C 33.425688 52.337953 33.966094 52.002185 34.496094 52.117188 L 41.748047 53.732422 C 41.751047 53.730422 41.756766 53.728563 41.759766 53.726562 L 41.929688 53.771484 L 42.255859 53.845703 C 42.282859 53.851703 42.302125 53.868953 42.328125 53.876953 L 58 58 L 53.011719 43.037109 C 55.542719 38.780109 57 33.812 57 28.5 C 57 12.76 44.24 0 28.5 0 z M 15 20 L 29 20 C 29.552 20 30 20.448 30 21 C 30 21.552 29.552 22 29 22 L 15 22 C 14.448 22 14 21.552 14 21 C 14 20.448 14.448 20 15 20 z M 15 28 L 42 28 C 42.552 28 43 28.448 43 29 C 43 29.552 42.552 30 42 30 L 15 30 C 14.448 30 14 29.552 14 29 C 14 28.448 14.448 28 15 28 z M 15 36 L 42 36 C 42.552 36 43 36.448 43 37 C 43 37.552 42.552 38 42 38 L 15 38 C 14.448 38 14 37.552 14 37 C 14 36.448 14.448 36 15 36 z " />
</g>
</svg>

<?xml version="1.0" encoding="iso-8859-1"?>
<!-- Generator: Adobe Illustrator 18.0.0, SVG Export Plug-In . SVG Version: 6.00 Build 0)  -->
<!DOCTYPE svg PUBLIC "-//W3C//DTD SVG 1.1//EN" "http://www.w3.org/Graphics/SVG/1.1/DTD/svg11.dtd">
<svg version="1.1" id="Capa_1" xmlns="http://www.w3.org/2000/svg" xmlns:xlink="http://www.w3.org/1999/xlink" x="0px" y="0px"
	 viewBox="0 0 58 58" style="enable-background:new 0 0 58 58;" xml:space="preserve">
<g>
	<path style="fill:#888888;" d="M34.064,54.07c-0.539-0.12-0.879-0.654-0.76-1.193c0.121-0.539,0.663-0.874,1.193-0.759l7.252,1.614
		c0.003-0.002,0.007-0.003,0.01-0.005l0.171,0.045l0.326,0.073c0.027,0.006,0.047,0.024,0.073,0.032L58,58l-4.988-14.963
		C55.543,38.78,57,33.812,57,28.5C57,12.76,44.24,0,28.5,0S0,12.76,0,28.5S12.76,57,28.5,57c3.603,0,7.048-0.673,10.221-1.894
		L34.064,54.07z"/>
	<path style="fill:#FFFFFF;" d="M29,22H15c-0.552,0-1-0.448-1-1s0.448-1,1-1h14c0.552,0,1,0.448,1,1S29.552,22,29,22z"/>
	<path style="fill:#FFFFFF;" d="M42,30H15c-0.552,0-1-0.448-1-1s0.448-1,1-1h27c0.552,0,1,0.448,1,1S42.552,30,42,30z"/>
	<path style="fill:#FFFFFF;" d="M42,38H15c-0.552,0-1-0.448-1-1s0.448-1,1-1h27c0.552,0,1,0.448,1,1S42.552,38,42,38z"/>
</g>
<g>
</g>
<g>
</g>
<g>
</g>
<g>
</g>
<g>
</g>
<g>
</g>
<g>
</g>
<g>
</g>
<g>
</g>
<g>
</g>
<g>
</g>
<g>
</g>
<g>
</g>
<g>
</g>
<g>
</g>
</svg>
